svg/editor/edit_2_line.svg

<?xml version="1.0" encoding="UTF-8"?>
<svg width="24px" height="24px" viewBox="0 0 24 24" version="1.1" xmlns="http://www.w3.org/2000/svg" xmlns:xlink="http://www.w3.org/1999/xlink">
    <title>edit_2_line</title>
    <g id="Icon" stroke="none" stroke-width="1" fill="none" fill-rule="evenodd">
        <g id="Editor" transform="translate(-96.000000, -192.000000)">
            <g id="edit_2_line" transform="translate(96.000000, 192.000000)">
                <path d="M24,0 L24,24 L0,24 L0,0 L24,0 Z M12.5935,23.2578 L12.5819,23.2595 L12.5109,23.295 L12.4919,23.2987 L12.4767,23.295 L12.4057,23.2595 C12.3958,23.2564 12.387,23.259 12.3821,23.2649 L12.378,23.2758 L12.3609,23.7031 L12.3659,23.7235 L12.3769,23.7357 L12.4805,23.8097 L12.4953,23.8136 L12.5071,23.8097 L12.6107,23.7357 L12.6233,23.7197 L12.6267,23.7031 L12.6096,23.2758 C12.6076,23.2657 12.601,23.2593 12.5935,23.2578 Z M12.8584,23.1453 L12.8445,23.1473 L12.6598,23.2397 L12.6499,23.2499 L12.6472,23.2611 L12.6651,23.6906 L12.6699,23.7034 L12.6784,23.7105 L12.8793,23.8032 C12.8914,23.8069 12.9022,23.803 12.9078,23.7952 L12.9118,23.7812 L12.8777,23.1665 C12.8753,23.1546 12.8674,23.147 12.8584,23.1453 Z M12.143,23.1473 C12.1332,23.1424 12.1222,23.1453 12.1156,23.1526 L12.1099,23.1665 L12.0758,23.7812 C12.0751,23.7927 12.0828,23.8019 12.0926,23.8046 L12.1083,23.8032 L12.3092,23.7105 L12.3186,23.7024 L12.3225,23.6906 L12.3404,23.2611 L12.3372,23.2485 L12.3278,23.2397 L12.143,23.1473 Z" id="MingCute" fill-rule="nonzero"></path>
                <path d="M13.8958,3.03 C14.6357895,2.29005789 15.8112493,2.25111357 16.5970778,2.91316704 L16.7243,3.03 L20.9669,7.27264 C21.7067947,8.01258211 21.7457366,9.18806637 21.0837255,9.97388053 L20.9669,10.1011 L10.6532,20.4148 C10.3197778,20.7482222 9.88080296,20.9517481 9.41483139,20.9928598 L9.23898,21.0006 L4.00634,21.0006 C3.48575467,21.0006 3.0571064,20.6066836 3.00226701,20.1006493 L2.99634,19.9906 L2.99634,14.7579 C2.99634,14.2864333 3.16282691,13.8321123 3.46324765,13.473528 L3.58212,13.3437 L13.8958,3.03 Z M12.17,7.58423 L4.99634,14.7579 L4.99634,19.0006 L9.23898,19.0006 L16.4127,11.8269 L12.17,7.58423 Z M15.31,4.44421 L13.5842,6.17001 L17.8269,10.4127 L19.5527,8.68685 L15.31,4.44421 Z" id="形状" fill="#09244B"></path>
            </g>
        </g>
    </g>
</svg>

<svg xmlns="http://www.w3.org/2000/svg" width="24" height="24"><g fill="none" fill-rule="evenodd"><path d="M24 0v24H0V0h24ZM12.594 23.258l-.012.002-.071.035-.02.004-.014-.004-.071-.036c-.01-.003-.019 0-.024.006l-.004.01-.017.428.005.02.01.013.104.074.015.004.012-.004.104-.074.012-.016.004-.017-.017-.427c-.002-.01-.009-.017-.016-.018Zm.264-.113-.014.002-.184.093-.01.01-.003.011.018.43.005.012.008.008.201.092c.012.004.023 0 .029-.008l.004-.014-.034-.614c-.003-.012-.01-.02-.02-.022Zm-.715.002a.023.023 0 0 0-.027.006l-.006.014-.034.614c0 .012.007.02.017.024l.015-.002.201-.093.01-.008.003-.011.018-.43-.003-.012-.01-.01-.184-.092Z"/><path fill="#09244B" d="M13.896 3.03a2 2 0 0 1 2.701-.117l.127.117 4.243 4.243a2 2 0 0 1 .117 2.7l-.117.128-10.314 10.314a2 2 0 0 1-1.238.578L9.239 21H4.006c-.52 0-.949-.394-1.004-.9l-.006-.11v-5.233a2 2 0 0 1 .467-1.284l.12-.13L13.895 3.03ZM12.17 7.584l-7.174 7.174V19H9.24l7.174-7.174-4.243-4.243Zm3.14-3.14L13.584 6.17l4.243 4.243 1.726-1.726-4.243-4.243Z"/></g></svg>
